/* XPM */
static char * mitk_chili_plugin_xpm[] = {
"40 40 62 1",
" 	c None",
".	c #000000",
"+	c #FCB900",
"@	c #FCBB00",
"#	c #FCBC00",
"$	c #FCC900",
"%	c #FCCB00",
"&	c #FCCC00",
"*	c #FCCE00",
"=	c #FCCF00",
"-	c #FCD100",
";	c #FCDA00",
">	c #FCDB00",
",	c #FCB100",
"'	c #FCB300",
")	c #FCB400",
"!	c #FCB500",
"~	c #FCB600",
"{	c #FCB800",
"]	c #FCBA00",
"^	c #FCBE00",
"/	c #FCBF00",
"(	c #FCC100",
"_	c #FCC800",
":	c #FCCA00",
"<	c #FCCD00",
"[	c #FCD000",
"}	c #FCB000",
"|	c #FCB700",
"1	c #FCAF00",
"2	c #FCBD00",
"3	c #FCC000",
"4	c #FCC700",
"5	c #FCC600",
"6	c #FCD900",
"7	c #FCC500",
"8	c #FCD700",
"9	c #FCD800",
"0	c #FCC400",
"a	c #FCD500",
"b	c #FCC300",
"c	c #FCD400",
"d	c #FCD600",
"e	c #FCAE00",
"f	c #FCB200",
"g	c #FCD200",
"h	c #FCAD00",
"i	c #FCC200",
"j	c #FCD300",
"k	c #FCAC00",
"l	c #FCA100",
"m	c #FCA200",
"n	c #FCA000",
"o	c #FCA400",
"p	c #FCA500",
"q	c #FCA600",
"r	c #FCA900",
"s	c #FCAA00",
"t	c #FCAB00",
"u	c #FCA300",
"v	c #FCA700",
"w	c #FCA800",
"                                        ",
"                                        ",
"                                        ",
"                                        ",
"                                        ",
"                                        ",
"                                        ",
"                                        ",
"                                        ",
"     .....       ........       ........",
"......+@#.....   .$%&*=-.       .;>;>>;.",
".,')!~{]@#^/(..  ._:&<*[.       .>>>>>>.",
".},')~|+]@#^/(.  ._$%&<=..     ..>>>>>;.",
".1}......]#2^3.. .4_$%&*=.     .;>>>>>;.",
"....    ..@#2^3. .54_:%<*..   ..6>;;>>>.",
"         .+@22/. .754_:%<*.   .896;>;>>.",
"         .{+@2.. .0754.:&<.   .a89.>>>>.",
"   .......|+@@.  .b074.::&.. ..cd8.;;>;.",
"   .e},f'!~|]..  .(b05..:%&. .gca..6>>>.",
"   .h1},')!|..   .(i00.._:&...-jc..96>>.",
"   .ke1,f')~{..  .3(i0...$%%.*[-...86;>.",
"   ......f'!~|.. .^3ib. .$$%<*=-. .d89;.",
"        ...)!|{. .2/3(. .4_:%&*=. .ad96.",
"          .f)~|. .#^3(. ..4$:%<.. .jad9.",
"          .,')~. .@2//.  .4_$%&.  .gca8.",
"          .}')!. .]#2^.  ..4_:..  .-jad.",
"....    ...},f). .+]#2.   .5_$.   .[gja.",
".lm......ke1},'. .{]@#.   .....   .[-jc.",
".nlmopqrstkh1}.. .{+]@.           .=[-j.",
".nnmuoqvwrth...  .~|+@.           .*[[g.",
".....opq.....    .~|{+.           .<*[-.",
"    .....        ......           ......",
"                                        ",
"                                        ",
"                                        ",
"                                        ",
"                                        ",
"                                        ",
"                                        ",
"                                        "};
